X: 35972
T: Sarah's Valentine
R: jig
M: 6/8
K: Gmajor
Bd|:gfg agf|gdB c2d|BDD cAG|FDF ABd|
gfg agf|gdB cdc|BDB ADA|G3 G3:|
|:B,G,B, DEF|GAB c2A|BDD cAG|FDF AFD|
B,G,B, DEF|GAB cdc|BDB ADA|G3 G3:|

